designer/server/src/main/resources/web/static/assets/states/failed.svg

<svg xmlns="http://www.w3.org/2000/svg" viewBox="0 0 24 24"><path fill="var(--errorColor, #F25C6E)" d="M12 2a10 10 0 1 0 10 10A10 10 0 0 0 12 2Zm5.55 13.28-2.25 2.28-3.3-3.3-3.29 3.29-2.27-2.27L9.73 12 6.45 8.71l2.27-2.27L12 9.72l3.28-3.27 2.28 2.25-3.29 3.3Z"/></svg>

<svg xmlns="http://www.w3.org/2000/svg" viewBox="0 0 24 24">
    <defs>
        <style>.azcz-1{fill:none;opacity:0.35}.azcz-2{fill:#f25c6e}</style>
    </defs>
    <g id="Layer_2">
        <g id="Layer_1-2">
            <rect class="azcz-1" width="24" height="24"/>
            <path class="azcz-2"
                  d="M12,2A10,10,0,1,0,22,12,10,10,0,0,0,12,2Zm5.55,13.28L15.3,17.56,12,14.26,8.71,17.55,6.44,15.28,9.73,12,6.45,8.71,8.72,6.44,12,9.72l3.28-3.27L17.56,8.7,14.27,12Z"/>
        </g>
    </g>
</svg>
